!!!!SEGMENT: pl-wn--sd-xvi-qu-273--029_gomolka-mikolaj--niescie-chwale-mocarze-panu-mocniejszemu.krn
!!!cenid: 15xx:234
!!!COM: Gomółka, Mikołaj
!!!COM-rismid: pe30013343
!!!CDT: ~1535->1591/04/30
!!!CNT: Polish
!!!GTL: Melodiae na psalterz polski
!!!OTL: XXIX. Nieście chwałę, mocarze, Panu mocniejszemu,
!!!PDT: 1580
!!!AGN: Sacred
!!!SMS-siglum: PL-Wn
!!!SMS-shelfmark: SD XVI.Qu.273
!!!SMS-shelfwork: 029 G
!!!NIFC-rismid:
!!!ONB-nifc: Melodiae na psalterz polski
**kern	**text	**text	**kern	**text	**text	**kern	**text	**text	**kern	**text	**text
*part4	*part4	*part4	*part3	*part3	*part3	*part2	*part2	*part2	*part1	*part1	*part1
*staff4	*staff4	*staff4	*staff3	*staff3	*staff3	*staff2	*staff2	*staff2	*staff1	*staff1	*staff1
*clefF4	*	*	*clefC3	*	*	*clefC3	*	*	*clefC1	*	*
*k[b-]	*	*	*k[b-]	*	*	*k[b-]	*	*	*k[b-]	*	*
*F:	*	*	*F:	*	*	*F:	*	*	*F:	*	*
*met(C|)	*	*	*met(C|)	*	*	*met(C|)	*	*	*met(C|)	*	*
*	*verse[1]	*verse[2]	*	*verse[1]	*verse[2]	*	*verse[1]	*verse[2]	*	*verse[1]	*verse[2]
*[A,A,B,B]	*[A,A,B,B]	*[A,A,B,B]	*[A,A,B,B]	*[A,A,B,B]	*[A,A,B,B]	*[A,A,B,B]	*[A,A,B,B]	*[A,A,B,B]	*[A,A,B,B]	*[A,A,B,B]	*[A,A,B,B]
*A	*A	*A	*A	*A	*A	*A	*A	*A	*A	*A	*A
=1-	=1-	=1-	=1-	=1-	=1-	=1-	=1-	=1-	=1-	=1-	=1-
2F	Nieś-	Nieś-	2c/	Nieś-	Nieś-	2f	Nieś-	Nieś-	2a	Nieś-	Nieś-
2F	-ćie	-ćie	2c/	-ćie	-ćie	2f	-ćie	-ćie	2a	-ćie	-ćie
2.BB-	chwa-	chwa-	2.d	chw(a-	chwa-	4d	chwa-	chwa	2.b-	chwa-	chwa-
.	.	.	.	.	.	4e	.	.	.	.	.
.	.	.	.	.	.	2f	-łę	łę	.	.	.
4FF	-(łę)	-(łę)	4c/	-łę)	-(łę)	.	.	.	4a	-łę	-łę
=2-	=2-	=2-	=2-	=2-	=2-	=2-	=2-	=2-	=2-	=2-	=2-
2C	mo-	ťró-	2.c/	mo-	ťró-	4e	mo-	ťró-	2g	mo-	ťró-
.	.	.	.	.	.	2f	-ca-	-lo-	.	.	.
2C	-ca-	-lo-	.	.	.	.	.	.	2g	-ca-	-lo-
.	.	.	4B-	-ca-	-(lo-	4e	.	.	.	.	.
2FF	-rӡe	-wie	2A	-rӡe	-wie)	2f	-rӡe	(wie)	2a	-rӡe	-(wie)
4r	.	.	4r	.	.	4r	.	.	4r	.	.
4FF	pá	ťró-	4c/	pá	ťró-	4f	pá	ťró-	4a	pá	ťró-
=3-	=3-	=3-	=3-	=3-	=3-	=3-	=3-	=3-	=3-	=3-	=3-
2GG	-nu	-lo-	2B-	-nu	-lo-	2d	-nu	-lo-	2g	-nu	-lo-
2AA	moc-	-wi	2A	moc-	-wi	2c	moc-	-wi	2f	moc-	-wi
2BB-	-niey-	więt-	2G	-niey-	więt-	2d	-niey-	więt-	2f	-niey-	więt-
2C	-ße-	-ße-	2G	-ße-	-ße-	4c	-ße-	-ße	2e	-ße-	-ße-
.	.	.	.	.	.	4B-	.	.	.	.	.
=4-	=4-	=4-	=4-	=4-	=4-	=4-	=4-	=4-	=4-	=4-	=4-
1FF	-(mu)	-mu:	1F	-(mu)	-mu:	1A	-mu	mu:	1f	-(mu)	mu:
=:!:-	=-	=-	=-	=-	=-	=-	=-	=-	=-	=-	=-
*B	*B	*B	*B	*B	*B	*B	*B	*B	*B	*B	*B
2F	Je-	.	2c	Je-	.	2A	Je-	.	2a	Je-	.
4D/	-(go)	.	2f	-(go)	.	2d	-(go)	.	2a	-(go)	.
4E	.	.	.	.	.	.	.	.	.	.	.
=5-	=5-	=5-	=5-	=5-	=5-	=5-	=5-	=5-	=5-	=5-	=5-
4F	ӡe	.	2f	ӡe	.	2c/	ӡe	.	4a	ӡe	.
4G	.	.	.	.	.	.	.	.	4b-	.	.
2A	wß(ӡech)	.	2e	wßӡ(ech)	.	2c/	wßӡ(ech)	.	2cc	w(ßӡech)-	.
2F	naś-	.	2f	naś-	.	2a	naś-	.	2cc	naś-	.
2G	-więt-	.	2d	-więt-	.	4g	-więt-	.	2b-	-więt-	.
.	.	.	.	.	.	4f	.	.	.	.	.
!!LO:PB:g=original
=6-	=6-	=6-	=6-	=6-	=6-	=6-	=6-	=6-	=6-	=6-	=6-
2C	-ßӡé	.	2c	-ßӡé	.	2e	-ßӡé	.	2cc	-ßӡé	.
2D	i-	.	2f	i-	.	2d	i-	.	2a	i-	.
2BB-	-mię	.	2f	-mię	.	2d	-mię	.	4dd	-mię	.
.	.	.	.	.	.	.	.	.	4cc	.	.
2C	wyz-	.	2e	wyz-	.	4e	wyz-	.	2cc	wyz-	.
.	.	.	.	.	.	4f	.	.	.	.	.
=7-	=7-	=7-	=7-	=7-	=7-	=7-	=7-	=7-	=7-	=7-	=7-
2GG	-na-	.	2d	-na-	.	2.g	-na-	.	2cc	-na-	.
2GG	-way-	.	2d	-way-	.	.	.	.	2b-	-way-	.
.	.	.	.	.	.	4f	-way-	.	.	.	.
1C	-ćie	.	1c	-ćie	.	1e	-ćie	.	1cc	-ćie	.
=8-	=8-	=8-	=8-	=8-	=8-	=8-	=8-	=8-	=8-	=8-	=8-
2FF	Je-	.	2f	Je-	.	2c/	Je-	.	2a	ie-	.
2F	-mu	.	2f	-(mu)	.	2c/	-mu	.	2a	-mu	.
2F	w_ťoś-	.	2f	w_ťoś-	.	2c/	w_ťoś-	.	2a	w_ťoś-	.
2C	-ćie-	.	2e	-ćie-	.	2c/	-ćie-	.	4g/	-ćie-	.
.	.	.	.	.	.	.	.	.	4a	.	.
=9-	=9-	=9-	=9-	=9-	=9-	=9-	=9-	=9-	=9-	=9-	=9-
2.D	-le	.	2d	-le	.	2f	-(le)	.	4b-	-le	.
.	.	.	.	.	.	.	.	.	8aL	.	.
.	.	.	.	.	.	.	.	.	8b-J	.	.
.	.	.	2d	świę-	.	2f	świę-	.	4a	świę-	.
4E	świę-	.	.	.	.	.	.	.	4g	.	.
2F	-tym	.	2c/	-tym	.	2.f	-tym	.	2a	-tym	.
2FF	ie-	.	2c/	ie-	.	.	.	.	2a	ie-	.
.	.	.	.	.	.	4e	ie-	.	.	.	.
=10-	=10-	=10-	=10-	=10-	=10-	=10-	=10-	=10-	=10-	=10-	=10-
2GG	-go	.	2B-	-go	.	2d	-go	.	2g/	-go	.
2AA	ʃye	.	2A	ʃye	.	2c/	ʃye	.	2f	ʃye	.
2BB-	ťła-	.	2G	ťła-	.	2d	ťła-	.	2f	ťła-	.
2C	-niay-	.	2G	-niay-	.	4c/	-niay-	.	2e	-niay-	.
.	.	.	.	.	.	4B-	.	.	.	.	.
=11-	=11-	=11-	=11-	=11-	=11-	=11-	=11-	=11-	=11-	=11-	=11-
!!LO:N:vis=00
!	!	!	!brak caudy	!	!	!cauda po lewej str	!	!	!	!	!
0FF/	-ćie.	.	0A/	-ćie.	.	0A/	-ćie.	.	0f/	-ćie.	.
=-	=-	=-	=-	=-	=-	=-	=-	=-	=-	=-	=-
*-	*-	*-	*-	*-	*-	*-	*-	*-	*-	*-	*-
!!!RDF**kern: l = terminal long
!!!system-decoration: s1s2s3s4
!!!ENC:Anna Matusӡewska
!!!END:2020-02-06
!!!URL-scan: https://polona.pl/item/melodiae-na-psalterz-polskiNzk3MTM4ODQ/79 Scan on Polona
!!!IIIF: https://polona.pl/iiif/item/Nzk3MTM4ODQ/manifest.json
